icons/desktop/20/extension-fill-20.svg

<svg width="20" height="20" viewBox="0 0 20 20" fill="none" xmlns="http://www.w3.org/2000/svg">
<path d="M10.5 0.999023C11.881 0.999023 13 2.11802 13 3.49902V5.07422C13.947 5.12922 14.8931 5.20817 15.8301 5.32617C17.206 5.49921 18.242 6.66601 18.249 8.04395L18.25 8.04199V15.9414L18.249 15.957L18.2354 16.2109C18.1105 17.4751 17.119 18.5106 15.8301 18.6729C14.1101 18.8889 12.359 18.999 10.625 18.999C8.88 18.999 7.11767 18.8879 5.38867 18.6689C4.02097 18.4958 3.0002 17.3191 3 15.9404V14.499C3 14.223 3.224 13.999 3.5 13.999H5.5C6.58791 13.999 7.49985 13.1172 7.5 12.0293V11.9688C7.49985 10.8809 6.58791 9.99902 5.5 9.99902H3.5C3.224 9.99902 3 9.77502 3 9.49902V8.05762C3.0002 6.6779 4.02097 5.50223 5.38867 5.3291C6.25367 5.2191 7.126 5.13703 8 5.08203V3.49902C8 2.11802 9.119 0.999023 10.5 0.999023Z" fill="black"/>
</svg>

<!-- This Source Code Form is subject to the terms of the Mozilla Public
   - License, v. 2.0. If a copy of the MPL was not distributed with this
   - file, You can obtain one at http://mozilla.org/MPL/2.0/. -->
<svg xmlns="http://www.w3.org/2000/svg" width="20" height="20" fill="context-fill" fill-opacity="context-fill-opacity" viewBox="0 0 20 20">
    <path d="M10.5.999a2.5 2.5 0 0 1 2.5 2.5v1.575c.947.055 1.893.134 2.83.252a2.76 2.76 0 0 1 2.419 2.718l.001-.002v7.9l-.001.015-.014.254a2.764 2.764 0 0 1-2.405 2.462 41.832 41.832 0 0 1-10.441-.004A2.746 2.746 0 0 1 3 15.94V14.5a.5.5 0 0 1 .5-.5h2c1.088 0 2-.882 2-1.97v-.06c0-1.088-.912-1.97-2-1.97h-2a.5.5 0 0 1-.5-.5V8.058a2.746 2.746 0 0 1 2.389-2.729Q6.688 5.164 8 5.082V3.499a2.5 2.5 0 0 1 2.5-2.5" />
</svg>
